-- 2019/08/31
setcps 0.26

-- Palais de Mari for piano (1986) by Morton Feldman
hush
once $ (|+ n "0") $ n "[8@3 14@2, ~@2 5@6 4@2]" # s "piano" # gain 0.7 # sustain 5.0
once $ (|+ n "0") $ n "[8@3 14@2, ~@2 5@3 4@5]" # s "piano" # gain 0.7 # sustain 5.0
once $ (|+ n "0") $ n "[~ 16@2 15@2, 14 14]" # s "piano" # gain 0.7 # sustain 5.0

once $ (|+ n "0") $ n " 6 -16 -5 5 8" # s "sole" # gain 0.7

once $ n "30" # s "piano" # gain 0.7 # sustain 10.0

once $ (|+ n "0") $ n "[8@3 14@2, ~@2 4@3 3@5]" # s "piano" # gain 0.7 # sustain 5.0
once $ (|+ n "0") $ n "[-2@3 2@2, ~@2 -7@3 -8@5]" # s "piano" # gain 0.7 # sustain 5.0
once $ (|+ n "0") $ n "[22@3 14@2, -16@3 -5@2]" # s "piano" # gain 0.7 # sustain 5.0
once $ (|+ n "0") $ n "[29@3 31@2, -2@3 12@2]" # s "piano" # gain 0.7 # sustain 5.0
once $ (|+ n "0") $ n "[10@3 2@2, -28@3 -17@2]" # s "piano" # gain 0.7 # sustain 5.0

once $ (|+ n "0") $ n "[7, 8, 14, 20]" # s "piano" # gain 0.7 # sustain 5.0
once $ (|+ n "0") $ n "[-4, 3, 7, 21]" # s "piano" # gain 0.7 # sustain 5.0
once $ (|+ n "0") $ n "[-19, -8, 3, 13]" # s "piano" # gain 0.7 # sustain 5.0
once $ (|+ n "0") $ n "[-12, -4, 2, 4, 9, 10, 13]" # s "piano" # gain 0.7 # sustain 5.0
once $ (|+ n "0") $ n "[-4, -2, 1, 9]" # s "piano" # gain 0.7 # sustain 5.0
once $ (|+ n "0") $ n "[-10, 0, 3, 13]" # s "piano" # gain 0.7 # sustain 5.0

-----

once $ (|- n (irand 12)) $ n "[0, 11, 22, 32]" # s "piano" # gain 0.7 # sustain 5.0
d1 silence

d1 $ (|+ n "0") $ n "<29 30 31>" # s "piano" # gain 0.7 # sustain 5.0
hush

once $ (|+ n "0") $ n "[-12, -4, 2, 4, 9, 10, 13]" # s "piano" # gain 0.7 # sustain 5.0
once $ (|+ n "0") $ n "[-19, -8, 3, 13]" # s "piano" # gain 0.7 # sustain 5.0

once $ (|+ n "0") $ n "[13@3 13@3, 3@3 3@3, 0@3 -8@3, -10@3 -19@3]" # s "piano" # gain 0.7 # sustain 5.0

once $ (|+ n "0") $ n "[-4, -2, 1, 9]" # s "piano" # gain 0.7 # sustain 5.0
once $ (|+ n "0") $ n "[-10, 0, 3, 13]" # s "piano" # gain 0.7 # sustain 5.0
once $ (|+ n "0") $ n "[-4, 3, 7, 21]" # s "piano" # gain 0.7 # sustain 5.0

once $ (|+ n "0") $ n "[19@5 14 24@4, -14@6 4@4]" # s "piano" # gain 0.7 # sustain 5.0

once $ (|+ n "0") $ n "[-12, -4, 2, 4, 9, 10, 13]" # s "piano" # gain 0.7 # sustain 5.0

once $ (|+ n "0") $ n "[13@3 13@3, 3@3 3@3, 0@3 -8@3, -10@3 -19@3]" # s "piano" # gain 0.7 # sustain 5.0

once $ (|+ n "0") $ n "[-19, -8, 3, 13]" # s "piano" # gain 0.7 # sustain 5.0
once $ (|+ n "0") $ n "[2, 3, 15]" # s "piano" # gain 0.7 # sustain 5.0

once $ (|+ n "0") $ n "[12 22@11 14@8, -4@12 7@8]" # s "piano" # gain 0.7 # sustain 5.0
once $ (|+ n "0") $ n "[10, 35]" # s "piano" # gain 0.7 # sustain 5.0
once $ (|+ n "0") $ n "[-3 10@11 ~ [14, 26]@7, -4@12 5 7@7]" # s "piano" # gain 0.7 # sustain 5.0

once $ (|+ n "0") $ n "[-12, -11, 6]" # s "piano" # gain 0.7 # sustain 5.0
once $ (|+ n "0") $ n "[-10, 0, 3, 13]" # s "piano" # gain 0.7 # sustain 5.0
once $ (|+ n "0") $ n "[2, 3, 11, 22]" # s "piano" # gain 0.7 # sustain 5.0
once $ (|+ n "0") $ n "[-11, -9, 6, 17]" # s "piano" # gain 0.7 # sustain 5.0

once $ (|+ n "0") once $ n "[8@3 14@2, ~@4 5@3 4@3]" # s "piano" # gain 0.7 # sustain 5.0
once $ n "[8@3 14@2, ~ 5@3 4]" # s "piano" # gain 0.7 # sustain 5.0

once $ (|+ n "0") $ n "[22@3 14@2, -16@3 -5@2]" # s "piano" # gain 0.7 # sustain 5.0
once $ (|+ n "0") $ n "[18@3 25@2, -1@3 8@2]" # s "piano" # gain 0.7 # sustain 5.0

once $ (|+ n "0") $ n "[22@3 14@2, -4@3 -7@2]" # s "piano" # gain 0.7 # sustain 5.0
once $ (|+ n "0") $ n "[18@3 25@2, -1@3 8@2]" # s "piano" # gain 0.7 # sustain 5.0
once $ (|+ n "0") $ n "[18@3 25@2, -1@3 8@2]" # s "piano" # gain 0.7 # sustain 5.0

once $ (|+ n "0") $ n "[20@12 16 23@7, 6@12 12@8, 2@12 9@8, -5@12 -2@8]" # s "piano" # gain 0.7 # sustain 5.0
once $ (|+ n "0") $ n "[12 22@11 26@8, 8@12 17 19@7]" # s "piano" # gain 0.7 # sustain 5.0
once $ (|+ n "0") $ n "[-11, -9, 6, 17]" # s "piano" # gain 0.7 # sustain 5.0
once $ (|+ n "0") $ n "[-11, 1, 2, 12]" # s "piano" # gain 0.7 # sustain 5.0

-----

once $ (|+ n "0") $ n "[6, 7, 8, 9, 16, 17, 19]" # s "piano" # gain 0.7 # sustain 5.0
once $ (|+ n "0") $ n "[-19, -9, -5, -3, 4, 6]" # s "piano" # gain 0.7 # sustain 5.0
once $ (|+ n "0") $ n "[-12, -4, 2, 4, 9, 10, 13]" # s "piano" # gain 0.7 # sustain 5.0
once $ (|+ n "0") $ n "[17@12 14 24@7, -14@12 7@8]" # s "piano" # gain 0.7 # sustain 5.0

once $ (|+ n "0") $ n "[-11, -6, -5, 2, 3, 12]" # s "piano" # gain 0.7 # sustain 5.0
once $ (|+ n "0") $ n "[-12, -4, 2, 4, 9, 10, 13]" # s "piano" # gain 0.7 # sustain 5.0

once $ (|+ n "0") $ n "[~@8 17 27@7 ~@12 13 24@7, ~@8 7@12 ~@12 -4@8]" # s "piano" # gain 0.7 # sustain 5.0
once $ (|+ n "0") $ n "[~@8 17 27@7, ~@8 7@12]" # s "piano" # gain 0.7 # sustain 5.0

once $ (|+ n "0") $ n "[-11, -6, -5, 2, 3, 12]" # s "piano" # gain 0.7 # sustain 5.0

-----

once $ (|+ n "0") $ n "[~@12 13 24@7, ~@12 -4@8]" # s "piano" # gain 0.7 # sustain 5.0

once $ (|+ n "0") $ n "[-19, -9, -5, -3, 4, 6]" # s "piano" # gain 0.7 # sustain 5.0
once $ (|+ n "0") $ n "[-19, -18, -4, 7]" # s "piano" # gain 0.7 # sustain 5.0
once $ (|+ n "0") $ n "[17@11 14 24@12, -14@12 4@12]" # s "piano" # gain 0.7 # sustain 5.0

once $ (|+ n "0") $ n "[-11, -2, -1, 2, 3, 11]" # s "piano" # gain 0.7 # sustain 5.0
once $ (|+ n "0") $ n "[-19, -8, 3, 13]" # s "piano" # gain 0.7 # sustain 5.0
once $ (|+ n "0") $ n "[-4, -2, 1, 9]" # s "piano" # gain 0.7 # sustain 5.0
once $ (|+ n "0") $ n "[-12, -4, 2, 4, 9, 10, 13]" # s "piano" # gain 0.7 # sustain 5.0

once $ (|+ n "0") $ n "[8@3 14@2, ~ 5@3 4]" # s "piano" # gain 0.7 # sustain 5.0

once $ (|+ n "0") $ n "[-13, -12, 13, 20]" # s "piano" # gain 0.7 # sustain 5.0
once $ (|+ n "0") $ n "[-11, -4, -3, -1, 0, 10]" # s "piano" # gain 0.7 # sustain 5.0

once $ (|+ n "0") $ n " 5 8" # s "sole" # gain 0.7

-----

once $ (|+ n "0") $ n "[17@11 14 24@8, -14@12 7@7]" # s "piano" # gain 0.7 # sustain 5.0

once $ (|+ n "0") $ n "[-11, -4, -3, -1, 0, 10]" # s "piano" # gain 0.7 # sustain 5.0
once $ (|+ n "0") $ n "[-17, -6, 3, 13]" # s "piano" # gain 0.7 # sustain 5.0

once $ (|+ n "0") $ n "[5@11 2 12@8, -14@12 -5@7]" # s "piano" # gain 0.7 # sustain 5.0

-----

once $ (|+ n "0") $ n "[-19, -18, -4, 7]" # s "piano" # gain 0.7 # sustain 5.0
once $ (|+ n "0") $ n "[-19, -9, -5, -4, 4, 5]" # s "piano" # gain 0.7 # sustain 5.0

once $ (|+ n "0") $ n "[-11, -6, -5, 2, 3, 12]" # s "piano" # gain 0.7 # sustain 5.0
once $ (|+ n "3") $ n "[5@11 2 12@8, -14@12 -5@8]" # s "piano" # gain 0.7 # sustain 5.0
once $ (|+ n "3") $ n "[18@3 25@2, -1@3 8@2]" # s "piano" # gain 0.7 # sustain 5.0

-----

once $ (|+ n "0") $ n "[-11, -4, -3, -1, 0, 10]" # s "piano" # gain 0.7 # sustain 5.0
once $ (|+ n "0") $ n "[-17, -6, 3, 13]" # s "piano" # gain 0.7 # sustain 5.0
once $ (|+ n "0") $ n "[14 24@15, ~ 7@15]" # s "piano" # gain 0.7 # sustain 5.0
once $ (|+ n "0") $ n "[17 27@15, ~ -4@15]" # s "piano" # gain 0.7 # sustain 5.0

once $ (|+ n "3") $ n "[14 24@7, ~ 7@7]" # s "piano" # gain 0.7 # sustain 5.0
once $ (|+ n "3") $ n "[17 27@7, ~ -4@7]" # s "piano" # gain 0.7 # sustain 5.0

once $ (|+ n "0") $ n "[-19, -18, -4, 7]" # s "piano" # gain 0.7 # sustain 5.0

once $ (|+ n "0") $ n "5 8" # s "sole" # gain 0.7

once $ (|+ n "4") $ n "[18 28@15, ~ 11@15]" # s "piano" # gain 0.7 # sustain 5.0
once $ (|+ n "4") $ n "[16 26@15, ~ 25@15]" # s "piano" # gain 0.7 # sustain 5.0

-----

once $ (|+ n "0") $ n "[-11, -4, -3, -1, 0, 10]" # s "piano" # gain 0.7 # sustain 5.0
once $ (|+ n "0") $ n "[-17, -6, 3, 13]" # s "piano" # gain 0.7 # sustain 5.0

once $ (|+ n "0") $ n "[-19, -9, -8, -4, 4, 6]" # s "piano" # gain 0.7 # sustain 5.0

once $ (|+ n "0") $ n "[5 15@15, ~ 8@15]" # s "piano" # gain 0.7 # sustain 5.0
once $ (|+ n "0") $ n "[2 12@15, ~ 19@15]" # s "piano" # gain 0.7 # sustain 5.0

once $ (|+ n "0") $ n "53" # s "piano" # gain 0.7 # sustain 10.0

once $ (|+ n "0") $ n "[8@11 4 11@8, -6@12 0@8, -10@12 -3@8, -17@12 -14@8]" # s "piano" # gain 0.7 # sustain 5.0

once $ (|+ n "0") $ n "[-11, -4, -3, -1, 0, 10]" # s "piano" # gain 0.7 # sustain 5.0
once $ (|+ n "0") $ n "[-17, -6, 3, 13]" # s "piano" # gain 0.7 # sustain 5.0

once $ (|+ n "0") $ n "[13 24@15, ~ 2@15]" # s "piano" # gain 0.7 # sustain 5.0
once $ (|+ n "0") $ n "[17 27@15, ~ 10@15]" # s "piano" # gain 0.7 # sustain 5.0

-----

once $ (|+ n "0") $ n "[[-17, -10, -6, 8]@3 [-14, -3, 0, 11]@2]" # s "piano" # gain 0.7 # sustain 5.0

once $ (|+ n "0") $ n "[-11, -4, -3, -1, 0, 10]" # s "piano" # gain 0.7 # sustain 5.0
once $ (|+ n "0") $ n "[-17, -6, 3, 13]" # s "piano" # gain 0.7 # sustain 5.0

once $ (|+ n "0") $ n "[14 25@5, ~ 11@5]" # s "piano" # gain 0.7 # sustain 5.0
once $ (|+ n "0") $ n "[18 28@5, ~ 11@5]" # s "piano" # gain 0.7 # sustain 5.0
once $ (|+ n "0") $ n "[16 26@5, ~ 25@5]" # s "piano" # gain 0.7 # sustain 5.0

once $ (|+ n "0") $ n "[5 15@11, ~ 31@11]" # s "piano" # gain 0.7 # sustain 5.0
once $ (|+ n "0") $ n "[1 15@11, ~ 24@11]" # s "piano" # gain 0.7 # sustain 5.0
once $ (|+ n "0") $ n "[5 15@11, ~ 10@11]" # s "piano" # gain 0.7 # sustain 5.0

once $ (|+ n "0") $ n "[14 24@5, ~ 7@5]" # s "piano" # gain 0.7 # sustain 5.0
once $ (|+ n "0") $ n "[17 27@5, ~ -4@5]" # s "piano" # gain 0.7 # sustain 5.0



-- solenoid & motor

d1 $ n "-27 ~ -22*3 ~ 36 ~ 40 ~" # sound "sole" # gain 0.5 # midichan 1
once $ n "19*33? [31*11?, 29*6] ~" # sound "piano" # gain 0.7

d1 $ (|+ n "-60") $ n "82 52 53 62 66 44 55 65 68" # s "sole" # gain 0.7
d1 $ (|+ n "0") $ n "22 -8 -7 2 6 -16 -5 5 8" # s "sole" # gain 0.7
once $ (|+ n "0") $ n "22 [-8*5, -7*7]" # s "sole" # gain 0.7
once $ (|+ n "0") $ n "-2 6*3 -16*7 8" # s "sole" # gain 0.7
once $ (|+ n "0") $ n " -7*6" # s "sole" # gain 0.7
d1 silence

d1 $ (|+ n "-20") $ n "[28 18 22, 21 31, 18 6 -17, 7 8 9, 2 26 27 29 4]*44?" # s "[sole, piano]" # gain 0.7
once $ (|+ n "0") $ n "[-2 3 -2 3 -2 3 -2]*44?" # s "[sole piano]" # gain 0.7 # sustain 5.0


-- fingers
hush

once $ n "[0 1]*55?" # s "piano" # gain 0.7

once $ n "[0 1 2 3, 4 5 [6 7, 8 9] 10 11]" # s "piano" # gain 1.0 # sustain "0.1 3.0"
hush

d2 $ fast 0.9 $ n "[-1, 0] [1, 2] 3 [4, 5] [6, 7] 8 [9, 10] [11, 12]" # s "piano" # gain 0.9

d1 $ swingBy (0.7) 2 $ n "<-5 0 5>*8" # s "piano" # gain (range 0.5 1.2 $ perlin) # sustain "0.9 0.5"
d2 $ n "4*8" # s "piano" # gain (range 0.5 1.0 $ perlin) # sustain "0.9 0.5"
d3 $ n "5*8" # s "piano" # gain (range 0.5 1.0 $ rand) # sustain "0.9 0.5"
d4 $ n "<11 12 13>*8" # s "piano" # gain (range 0.5 1.0 $ perlin) # sustain "0.9 0.5" # cps "0.1 0.15"

-- trill
d1 $ every 2 (|+ n "1 9 10 13 17") $ n "[-12 -10]*55" # s "piano" # gain (range 0.7 0.9 $ rand) # sustain 5.0

hush

-- chord
d1 $ slow 4 $ (|+ n "<-5 0 1 2 7>") $ n "ff'maj9 g'maj9 a*3" # s "piano" # sustain 5.0 # gain 0.8

d1 $ slow 3 $ n "gs'sus4 d'maj7 g5'min13" # s "piano" # sustain 5.0 # gain 0.8

d1 $ n ("cs4'maj11 c5'maj7 c6'maj9") # s "piano" # sustain 5.0
d1 $ (|+ n (irand 12)) $ n ("c g f*3" |+ "<'maj11 '7f10 '7sus4 'm13>") # s "piano" # sustain 5.0
d1 $ n ("c'maj e'maj f'maj, c'min e'min f'min") # s "piano"  # sustain 5.0

d1 $ arp "<up down>" $ n "c'maj7'i d'dim7'i" # sound "piano" # gain 1.0 # sustain 5.0
d1 $ jux rev $ arp "<pinkyup down thumbup up>" $ n "<c'maj'4 e4'min'8 f4'maj'4>" # s "piano" # sustain 5.0
d1 $ chunk 4 (|- note 5) $ jux rev $ arp "<pinkyup down thumbup up>" $ n "<c'maj'4 e4'min'8 f4'maj'4>" # s "piano" # sustain 5.0
d1 $ jux rev $ n (off 0.125 (|+ 12) $ off 0.125 (|+ 7)  "<c*2 a(3,8) f(3,8,2) e*2>") # s "piano"

hush

-- major maj minor min major7 maj7 dom7 minor7 min7 aug dim dim7 one 1 five 5 plus sharp5 msharp5 sus2 sus4 six 6 m6 sevenSus2 7sus2 sevenSus4 7sus4 sevenFlat5 7f5 m7flat5 m7f5 sevenSharp5 7s5 m7sharp5 m7s5 nine m9 m7sharp9 m7s9 maj9 nineSus4 ninesus4 9sus4 sixby9 6by9 m6by9 sevenFlat9 7f9 m7flat9 m7f9 sevenFlat10 7f10 nineSharp5 9s5 m9sharp5 m9s5 sevenSharp5flat9 7s5f9 m7sharp5flat9 eleven 11 m11 maj11 elevenSharp 11s m11sharp m11s thirteen 13 m13

-- up down updown downup up&down down&up converge diverge disconverge pinkyup pinkyupdown thumbup thumbupdown

-- scale

d1 $ n (scale "messiaen7" "[0..9]") # s "piano" # sustain 5.0

# gain ((fast 10 $ perlin * 0.8) + 0.5)

d1 $ palindrome $ n (scale "<pelog myPent>" "[0..12, -12..0]") # s "piano" # sustain 1.0

d1 $ slow 1.7 $ jux rev $ n (scale "chromatic" $ shuffle 6 $ "< -4 3 > <5 17> 7 9 11") # s "piano" # sustain 5.0

hush

-- 5 notes scales: minPent majPent
-- another mode of major pentatonic: ritusen egyptian
-- kumai hirajoshi iwato chinese indian pelog
-- prometheus scriabin
-- han chinese pentatonic scales: gong shang jiao zhi
-- 6 note scales: yu whole augmented augmented2
-- hexatonic modes with no tritone: hexMajor7 hexDorian hexPhrygian hexSus hexMajor6 exAeolian
-- 7 note scales: major ionian dorian phrygian lydian mixolydian aeolian minor locrian harmonicMinor harmonicMajor melodicMinor melodicMinorDesc melodicMajor bartok hindu
-- raga modes: todi purvi marva bhairav ahirbhairav
-- superLocrian romanianMinor hungarianMinor neapolitanMinor enigmatic spanish
-- modes of whole tones with added note: leadingWhole lydianMinor neapolitanMajor locrianMajor
-- 8 note scales: diminished diminished2
-- modes of limited transposition: messiaen1 messiaen2 messiaen3 messiaen4 messiaen5 messiaen6 messiaen7
-- 12 note scales: chromatic

d1 $ scramble 12 $ up (run 12) # sound "piano" # gain (rand + 0.3)
d1 $ fast (range 0 2 $ rand) $ up (run 24) # sound "piano"

d1 $ scramble 9$ jux rev $ n "[0 1 2, 3 4 5 6, <7 8 9>, 10 11 12]" # s "piano" # gain "[0.7!7 1.2? 1.0?]" # cps (range 0.05 0.1 $ rand) # sustain "1.0 3.0"

d1 $ n ("1 7" + "2 3 12") |+ "6*7" # s "piano" # gain 0.7
d1 $ euclid "3 7" 7 $ s "piano*3?" # n (choose [-6, 0, 2, 13, 12]) # gain 0.9
d1 $ euclid "3 5" 7 $ n "0 3 7 5 8 12 7 10 14 0 3 7" # s "piano" # gain 0.9

hush

d1 $ struct (binary "[1, 2 255]") $ n "<2 3 5 7 9 11>" # sound "piano" # gain 1.0 # sustain 5.0
d1 $ struct (ascii "<a b> <c d> <e f>") $ n "<2 3 5, 7 8 9, 11 13, 17 19 23>" # sound "piano" # gain 1.0 # sustain 5.0



d1 $ n "c a f e" # sound "piano"
d1 $ n "<c a f e>" # sound "piano"
d1 $ n (off 0.125 (|+ 7) "<c a f e>") # s "piano"
d1 $ n (off 0.125 (|+ 7)  "<c*2 a(3,8) f(3,8,2) e*2>") # s "piano" # legato 2
d1 $ jux rev $ n (off 0.125 (|+ 7)  "<c*2 a(3,8) f(3,8,2) e*2>") # s "piano" # legato 2
d1 $ jux rev $ n (off 0.125 (|+ 12) $ off 0.125 (|+ 7)  "<c*2 a(3,8) f(3,8,2) e*2>") # s "piano" # legato 2

d1 $ jux rev $ arp "<pinkyup down thumbup up>" $ n "<c'maj'4 e4'min'8 f4'maj'4>" # s "piano" # legato 2
d1 $ chunk 4 (|- note 5) $ jux rev $ arp "<pinkyup down thumbup up>" $ n "<c'maj'4 e4'min'8 f4'maj'4>"  # s "piano" # legato 2

hush

once $ ccv "64" # ccn 13 # s "piano" -- String Length
once $ ccv "36" # ccn 77 # s "piano" -- Hammer Noise
once $ ccv "64" # ccn 93 # s "piano" -- Unison Width

once $ ccv "127" # ccn 67 # s "piano" -- Soft Pedal
once $ ccv "127" # ccn 69 # s "piano" -- Harmonic Pedal
once $ ccv "127" # ccn 66 # s "piano" -- Sostenute Pedal
once $ ccv "127" # ccn 64 # s "piano" -- Sustain Pedal
d2 $ slow 4 $ ccv "0 127" # ccn 64 # s "piano"
d2 $ slow 3 $ ccv "0 127" # ccn 67 # s "piano"

d1 $ n "c5'maj d5'min*2?" # s "piano" # legato 2
d1 $ n "<[a5, cs5'min7, e5, g5'dim]*3 [d5, fs5, g5, c5]>" # s "piano" # legato 2 # cps 1.0
d2 $ every 4 (rev) $ n "<[g5 df5 e5 a5] [gf5 d5 c5 g5]*3>" # s "supersaw"

d1 $ n "2*8" # s "sole" # gain 0.7
d1 silence

once $ n "-27" # sound "piano" # gain 1.0 # sustain 5.0
once $ n "-26" # sound "piano" # gain 1.0 # sustain 5.0
once $ slow 3 $ n "[41, 43, 44?]*17?" # sound "piano" # gain 1.5 # sustain 3.0
once $ slow 3 $ n "-27?*9" # sound "piano" # gain 0.6 # sustain 5.0

hush

once $ slow 4 $ n "-27 -22 36 40" # sound "piano" # gain 1.2 # sustain 5.0
d2 $ slow 4 $ (0.5 ~>) $ n "[-27, -22, 36, 40]" # sound "piano" # gain 0.6

d2 silence

d5 silence

d1 $ slow 1 $ n "b7*11?" # sound "piano" # gain 1.2 # sustain 5.0
d2 $ slow 1 $ n "g7*15" # sound "piano" # gain 1.2 # sustain 5.0
d7 $ slow 1 $ n "b8*11" # sound "piano" # gain 1.2 # sustain 5.0
d8 $ slow 1 $ n "c7*3" # sound "piano" # gain 1.4 # sustain 5.0

hush

d6 $ slow "<0.5 1 2>" $ arp "up&down" $ n ("<a5 d4 c3 e4>" |+ "<'min7 'maj7 'aug>") # s "piano" # gain 0.5 # sustain 5.0

d1 $ slow 3 $ n "[a6*3, b6, g7*2](4,7)" # sound "piano" # gain 0.65
d1 $ n "a1 cs2 c7 e7" # sound "piano" # gain (range 0.5 0.9 $ rand) # midichan 0 # cps (slow 8 $ range 0.8 1.6 saw)

-- cluster
d1 $ swingBy (1/2) 3 $ (|+ n "<0 -9 11>") $ n "[-1, 0, 1, 2, 3, 4, 5, 6, 7, 8, 9, 10, 11, 12]*2 ~ ~ ~ ~ ~ ~" # sound "piano" # gain 0.6

d1 $ brak $ (+| n ((irand 24) - 12)) $ n "[-1, 0, 1, 2, 3, 4, 5, 6, 7, 8, 9, 10, 11, 12]*3 ~ ~ ~ ~ ~ ~" # sound "piano" # gain (0.5 * perlin + 0.5)

d1 $ slow 8 $ scramble 12 $ n "[-12 .. 24] ~ ~ ~ ~ ~ ~" # sound "piano" # gain 0.7

hush

-- penta: -1 0, 1 2 3, 4 5, 6 7 8, 9 10, 11 12
-- 5th: 0 2 7, 1 4 6 9 11, 3 5 8 10
-- 5th: 2 7 12, -3 4 11 18 25, -4 3 10 17


d1 $ n "<c a f e>" # sound "piano" # gain (range 0.4 0.6 $ rand) # midichan 0 # cps (slow 8 $ range 0.8 1.6 saw)

once $ n (off 0.125 (|+ 7) "[c a f, g e]") # sound "piano" # gain 0.5 # midichan 0

once $ n (off 0.125 (|+ 7) "[c*2 a(3,8) g7(3,8) e]") # sound "piano" # gain 0.5 # legato 10
hush

once $ jux rev $ n (off 0.125 (|+ 7)  "<c*3 a(3,8) f(7,8) e*8>") # sound "piano" # gain 0.5 # legato 2

once $ chunk 4 (|+ n 2) $ jux rev $ n (off 0.125 (|* rand) $ off 0.125 (|+ 6)  "[c6*7?, a7(7,8)?, f(3,8), e*2]") # sound "piano" # gain 0.6 # legato 2

d1 $ chunk 4 (jux rev) $ arp "<pinkyup down thumbup up>" $ n "d6'maj'7 g2'min" # sound "piano" # gain 0.6 # sustain 0.5

d1 $ (|- n 12) $ n (range 0 48 $ rand) # s "piano" # gain (range 0.1 0.5 $ rand) # midichan 1

d1 $ every 2 (|* speed "0.5") $ n (range 0 12 $ rand) |- n "24" # s "piano" # gain (range 0.1 0.5 $ rand) # midichan 0

once $ slow 4 $ n "<30, 35, 34, 37, 38>" # sound "piano" # gain (range 0.9 1.0 $ rand) # sustain 8.0 # midichan 0

once $ jux rev $ slow 3 $ scramble 12 $ up (run 12) # sound "piano" # gain (range 0.4 0.6 $ rand) # sustain 8.0 # midichan 0

d1 silence

hush


d3 $slow 8 $ scramble 4 $ n "-27 ~ -22*3 ~ 36 ~ 40 ~" # sound "piano" # midichan 1

once $ slow (range 4 10 $ rand) $ jux rev $ every 2 (rot "<1 3 15 2>") $ n "0 < -10 14 > [ -22, 0] [2 30]" # sound "piano"

once $ slow 2 $ juxBy 0.7 rev $ every 2 (rot "<3 2>") $ n "0 <0 4> [2 0] [2 3]" # sound "piano" # sustain "0.5 2.0"

d1 $ jux rev $ slow 5 $ (|+ n "<4 -8 12>") $ (|* n (range 0.0 2.0 $ rand)) $ n "[-5, -3, 0, 1, 2, 3, 4, 5, 6, 7, 8, 9, 10, 11, 12] ~" # sound "piano" # gain 0.5 # sustain "3.0 2.0"

d1 $ slow 6 $ (|+ n "< -22 0 -40>") $ n "[0, 4]*11 ~ ~" # sound "piano" # gain 1.0 # sustain (range 2.0 5.0 $ rand)
d2 $ slow 7 $ (|+ n "[-22 -27 36 40]") $ n "0*11 ~ ~" # sound "piano" # gain 1.0 # sustain (range 2.0 5.0 $ rand)

d4 $ slow 3 $ n "36*2? -22?, -27? 40*2?" # sound "piano" # gain 1.2 # sustain 5.0

d4 silence


d3 $ slow 4 $ n "[[0?, 2?] 1](8, 11)*2?" # s "piano" # gain (range 0.5 1.5 $ rand) # sustain "0.2 2.9"
d3 silence

d4 $ every 3 (1000 ~>) $ n "[< 17*3? 19 20 21 23*7?>*8]" # s "piano" # gain (range 0.5 0.7 $ rand) # sustain "2.0 4.0"

d4 silence

once $ scramble 19 $ n "[-25*9 2*4, -1 [2*7, 26*5] 8*6]" # s "piano" # gain (range 0.1 0.6 $ rand) # midichan 0



main :: IO ()
main = putStrLn "hello, world"

:t once
:t putStrLn

(2,5) : A thirteenth century Persian rhythm called Khafif-e-ramal.
(3,4) : The archetypal pattern of the Cumbia from Colombia, as well as a Calypso rhythm from Trinidad.
(3,5,2) : Another thirteenth century Persian rhythm by the name of Khafif-e-ramal, as well as a Rumanian folk-dance rhythm.
(3,7) : A Ruchenitza rhythm used in a Bulgarian folk-dance.
(3,8) : The Cuban tresillo pattern.
(4,7) : Another Ruchenitza Bulgarian folk-dance rhythm.
(4,9) : The Aksak rhythm of Turkey.
(4,11) : The metric pattern used by Frank Zappa in his piece titled Outside Now.
(5,6) : Yields the York-Samai pattern, a popular Arab rhythm.
(5,7) : The Nawakhat pattern, another popular Arab rhythm.
(5,8) : The Cuban cinquillo pattern.
(5,9) : A popular Arab rhythm called Agsag-Samai.
(5,11) : The metric pattern used by Moussorgsky in Pictures at an Exhibition.
(5,12) : The Venda clapping pattern of a South African children’s song.
(5,16) : The Bossa-Nova rhythm necklace of Brazil.
(7,8) : A typical rhythm played on the Bendir (frame drum).
(7,12) : A common West African bell pattern.
(7,16,14) : A Samba rhythm necklace from Brazil.
(9,16) : A rhythm necklace used in the Central African Republic.
(11,24,14) : A rhythm necklace of the Aka Pygmies of Central Africa.
(13,24,5) : Another rhythm necklace of the Aka Pygmies of the upper Sangha.
